X:180
T:The Lily of the Valley
%%stretchlast false
M:6/8
L:1/4
K:Eb clef=C1
"^I"[EGe]/4 [EBeg]/4 [EGeb] [EGeb]/ "^IV²"[EAec'] | "^I"[EGeb]/ [EAeb]/ [EBeg]2 | "^I¹"[G,Be]/ "^ii¹"[A,Acf] "^IV"[A,Ace]/ [A,Ace] | "^IV¹"[CEAc]/ "^I"[EGB]3/2 [EGBe] | "^i"[EABf]/ "^I"[EBeg] [EBeg]/ [EBeg] | [EBeg]/ "^IV"[Aec'] "^I¹"[GBeb]/ "^I"[EBeg] | "^I¹"[G,Be]/ "^V"[B,Bdf]3 | [B,Bdf]3/2 "^I"[EGe] | [EBeg]/ [EGeb] [EGeb]/ "^IV²"[EAec'] | "^I"[EGeb]/ [EGeb]/ [EBeg]2 | [EGBe]/ "^ii¹"[A,Acf] "^IV"[A,Ace]/ [A,Ace] | "^IV¹"[CEAc]/ "^I"[EGB]3/2 [EGBe] | "^i"[EABf]/ "^I"[EBeg] [EBeg]/ "^V7"[B,Adf] | "^vi"[CGe]/ "^ii¹"[A,Acf] [A,Acf]/ "^I²"[B,GBe] | "^V"[B,FBd]/ "^I"[EGBe]3 | [EGBe]3/2 "^♯vi¹"[E_d]/ "^♯vi°"[EG_de]/ | "^IVmaj7"[A,Gce]/ "^IV"[A,Ace]/ [A,Eca]/ [A,Eca]/ [A,Eca]/ [A,Eca]/ | [A,Eca]/ "^i¹"[A,Eea]/ "^IV"[A,Aec']3/2 [A,Aec']/ | "^IV²"[EAec']/ [EAec']/ "^I"[EGeb]/ [EGeb]/ [EGeb]/ [EGeb]/ | [EBeg]/ [EGeb] [EGeb]/ [EBeg]/ [EBg]/ | "^i"[EABf]/ "^I"[EGBe]/ [FGBe]/ "^I¹"[GABe]/ [GBe]/ "^i"[EBe]/ | "^I"[GAe]/ "^IV"[Aec']/ "^IVmaj7³"[GAec']/ "^i"[EBeb]/ "^I"[EBeg]/ "^I¹"[G,Beg]/ | [B,Bde]/ "^V"[B,Bdf]5/2 | [B,Bdf]/ [B,Bdf] "^i"[EBef]/ "^I"[EGe]/ [EGe]/ | [EBeg]/ [EGeb]/ [EGeb]/ [EGeb]/ "^IV²"[EAec']/ [EAec']/ | "^I"[EGeb]/ [EGeb]/ [EBeg]3/2 "^I¹"[G,Beg]/ | "^IV"[A,Bce]/ "^ii¹"[A,Acf]/ [A,Acf]/ "^IV"[A,Ace]/ [A,Ace]/ "^IV¹"[CAe]/ | "^vi¹"[EGc]/ "^I"[EGB] "^i"[EB]/ "^I"[EGBe]/ [EGBe]/ | "^i"[EAef]/ "^I"[EBeg]/ [EBg]/ "^iii¹"[B,Bg]/ "^♯iii"[B,ABf]/ "^ii7²"[CAef]/ | "^IVmaj7"[A,Gce]/ "^ii¹"[A,Acf]/ [A,Acf]/ "^♯iii"[B,ABf]/ "^I²"[B,GBe]/ [B,GBe]/ | "^V"[EFBd]/ "^I"[EGBe]5/2 | [EGBe]/ [EGBe]3/2 |]
